local/share/icons/dracula-icons-main/scalable/mimetypes/application-dicom.svg

<?xml version="1.0" encoding="UTF-8"?>
<svg xmlns="http://www.w3.org/2000/svg" xmlns:xlink="http://www.w3.org/1999/xlink" width="64" height="64" viewBox="0 0 64 64">
<defs>
<filter id="filter-remove-color" x="0%" y="0%" width="100%" height="100%">
<feColorMatrix color-interpolation-filters="sRGB" values="0 0 0 0 1 0 0 0 0 1 0 0 0 0 1 0 0 0 1 0" />
</filter>
<mask id="mask-0">
<g filter="url(#filter-remove-color)">
<rect x="-6.4" y="-6.4" width="76.8" height="76.8" fill="rgb(0%, 0%, 0%)" fill-opacity="0.15"/>
</g>
</mask>
<linearGradient id="linear-pattern-0" gradientUnits="userSpaceOnUse" x1="49.570999" y1="52.714001" x2="51.714001" y2="54.856998" gradientTransform="matrix(2.3333, 0, 0, 2.3333, -68.667, -72.000999)">
<stop offset="0" stop-color="rgb(0%, 0%, 0%)" stop-opacity="1"/>
<stop offset="1" stop-color="rgb(0%, 0%, 0%)" stop-opacity="0"/>
</linearGradient>
<clipPath id="clip-0">
<rect x="0" y="0" width="64" height="64"/>
</clipPath>
<g id="source-5895" clip-path="url(#clip-0)">
<path fill-rule="evenodd" fill="url(#linear-pattern-0)" d="M 56 46 L 42 60 L 51 60 C 53.769531 60 56 57.769531 56 55 Z M 56 46 "/>
</g>
<mask id="mask-1">
<g filter="url(#filter-remove-color)">
<rect x="-6.4" y="-6.4" width="76.8" height="76.8" fill="rgb(0%, 0%, 0%)" fill-opacity="0.75"/>
</g>
</mask>
<clipPath id="clip-1">
<rect x="0" y="0" width="64" height="64"/>
</clipPath>
<g id="source-5899" clip-path="url(#clip-1)">
<path fill-rule="nonzero" fill="rgb(87.843137%, 87.843137%, 87.843137%)" fill-opacity="1" d="M 30.007812 18.800781 C 30.847656 18.800781 31.535156 19.472656 31.535156 20.296875 L 31.535156 26.210938 C 31.113281 25.886719 30.582031 25.6875 30.007812 25.6875 C 29.746094 25.6875 29.539062 25.894531 29.539062 26.148438 C 29.539062 26.398438 29.746094 26.605469 30.007812 26.605469 C 30.847656 26.605469 31.535156 27.273438 31.535156 28.097656 L 31.535156 39.085938 C 30.953125 38.351562 30.132812 37.800781 29.167969 37.546875 C 28.921875 37.480469 28.664062 37.625 28.597656 37.871094 C 28.527344 38.113281 28.675781 38.363281 28.925781 38.429688 C 30.460938 38.832031 31.535156 40.199219 31.535156 41.753906 C 31.535156 43.652344 29.953125 45.199219 28.011719 45.199219 C 26.699219 45.199219 25.507812 44.492188 24.894531 43.351562 C 24.832031 43.242188 24.726562 43.160156 24.601562 43.125 C 23.066406 42.722656 21.996094 41.355469 21.996094 39.804688 C 21.996094 39.574219 22.019531 39.339844 22.066406 39.113281 C 22.109375 38.902344 22 38.6875 21.796875 38.601562 C 20.707031 38.128906 20 37.070312 20 35.902344 C 20 35.371094 20.140625 34.863281 20.40625 34.414062 C 21.105469 35.019531 22.019531 35.382812 23.023438 35.382812 C 23.28125 35.382812 23.492188 35.179688 23.492188 34.925781 C 23.492188 34.675781 23.28125 34.46875 23.023438 34.46875 C 21.355469 34.46875 20 33.140625 20 31.511719 C 20 30.632812 20.394531 29.804688 21.085938 29.242188 C 21.242188 29.117188 21.296875 28.90625 21.21875 28.722656 C 21.070312 28.367188 20.996094 27.992188 20.996094 27.609375 C 20.996094 25.980469 22.351562 24.65625 24.019531 24.65625 C 25.6875 24.65625 27.042969 25.980469 27.042969 27.609375 C 27.042969 27.863281 27.253906 28.066406 27.511719 28.066406 C 27.769531 28.066406 27.980469 27.863281 27.980469 27.609375 C 27.980469 25.558594 26.339844 23.878906 24.273438 23.75 C 24.089844 23.445312 23.992188 23.09375 23.992188 22.734375 C 23.992188 21.917969 24.496094 21.21875 25.21875 20.914062 C 25.246094 20.90625 25.269531 20.894531 25.296875 20.882812 C 25.519531 20.796875 25.761719 20.753906 26.015625 20.753906 C 26.796875 20.753906 27.496094 21.179688 27.839844 21.871094 C 27.953125 22.097656 28.230469 22.191406 28.464844 22.078125 C 28.695312 21.96875 28.792969 21.699219 28.679688 21.46875 C 28.289062 20.683594 27.546875 20.117188 26.695312 19.917969 C 27.890625 19.207031 29.058594 18.800781 30.003906 18.800781 M 33.992188 18.800781 C 34.933594 18.800781 36.105469 19.207031 37.300781 19.917969 C 36.449219 20.117188 35.710938 20.683594 35.320312 21.46875 C 35.207031 21.695312 35.304688 21.96875 35.535156 22.078125 C 35.765625 22.191406 36.046875 22.097656 36.160156 21.871094 C 36.503906 21.179688 37.199219 20.753906 37.984375 20.753906 C 38.234375 20.753906 38.476562 20.796875 38.699219 20.882812 C 38.726562 20.894531 38.753906 20.90625 38.78125 20.914062 C 39.503906 21.21875 40.007812 21.917969 40.007812 22.734375 C 40.007812 23.09375 39.910156 23.445312 39.722656 23.75 C 37.65625 23.878906 36.019531 25.558594 36.019531 27.609375 C 36.019531 27.863281 36.226562 28.066406 36.488281 28.066406 C 36.746094 28.066406 36.957031 27.863281 36.957031 27.609375 C 36.957031 25.980469 38.308594 24.65625 39.976562 24.65625 C 41.644531 24.65625 43.003906 25.980469 43.003906 27.609375 C 43.003906 27.992188 42.925781 28.363281 42.78125 28.722656 C 42.703125 28.90625 42.757812 29.117188 42.914062 29.242188 C 43.601562 29.808594 44 30.632812 44 31.511719 C 44 33.140625 42.644531 34.46875 40.976562 34.46875 C 40.714844 34.46875 40.507812 34.675781 40.507812 34.925781 C 40.507812 35.179688 40.714844 35.382812 40.976562 35.382812 C 41.976562 35.382812 42.890625 35.019531 43.589844 34.414062 C 43.859375 34.863281 44 35.371094 44 35.902344 C 44 37.066406 43.292969 38.128906 42.203125 38.601562 C 42 38.6875 41.890625 38.902344 41.933594 39.113281 C 41.980469 39.339844 42.003906 39.574219 42.003906 39.804688 C 42.003906 41.355469 40.929688 42.722656 39.398438 43.125 C 39.269531 43.160156 39.167969 43.242188 39.105469 43.351562 C 38.492188 44.492188 37.296875 45.199219 35.984375 45.199219 C 34.042969 45.199219 32.464844 43.652344 32.464844 41.753906 C 32.464844 41.625 32.457031 41.496094 32.445312 41.371094 C 32.457031 41.332031 32.464844 41.292969 32.464844 41.25 L 32.464844 26.148438 C 32.464844 25.324219 33.148438 24.652344 33.992188 24.652344 C 34.25 24.652344 34.460938 24.449219 34.460938 24.195312 C 34.460938 23.945312 34.25 23.738281 33.992188 23.738281 C 33.414062 23.738281 32.886719 23.933594 32.464844 24.261719 L 32.464844 20.292969 C 32.464844 19.472656 33.148438 18.800781 33.992188 18.800781 M 40.976562 26.664062 C 40.714844 26.664062 40.507812 26.867188 40.507812 27.121094 C 40.507812 28.75 39.152344 30.078125 37.484375 30.078125 C 36.664062 30.078125 35.898438 29.765625 35.324219 29.191406 C 35.144531 29.011719 34.84375 29.007812 34.660156 29.183594 C 34.476562 29.359375 34.472656 29.648438 34.652344 29.828125 C 35.300781 30.476562 36.140625 30.871094 37.046875 30.96875 C 37.261719 32.359375 38.496094 33.429688 39.976562 33.429688 C 40.234375 33.429688 40.445312 33.226562 40.445312 32.972656 C 40.445312 32.71875 40.234375 32.515625 39.976562 32.515625 C 39.007812 32.515625 38.195312 31.847656 37.996094 30.957031 C 39.9375 30.710938 41.441406 29.085938 41.441406 27.121094 C 41.441406 26.867188 41.234375 26.664062 40.972656 26.664062 M 24.015625 27.152344 C 23.757812 27.152344 23.546875 27.355469 23.546875 27.609375 C 23.546875 29.570312 25.050781 31.199219 26.992188 31.445312 C 26.792969 32.335938 25.980469 33.003906 25.011719 33.003906 C 24.753906 33.003906 24.542969 33.207031 24.542969 33.460938 C 24.542969 33.714844 24.753906 33.917969 25.011719 33.917969 C 26.492188 33.917969 27.726562 32.847656 27.941406 31.457031 C 28.847656 31.359375 29.6875 30.96875 30.335938 30.320312 C 30.515625 30.140625 30.511719 29.847656 30.328125 29.671875 C 30.144531 29.496094 29.847656 29.496094 29.667969 29.679688 C 29.09375 30.25 28.328125 30.566406 27.507812 30.566406 C 25.839844 30.566406 24.480469 29.238281 24.480469 27.609375 C 24.480469 27.355469 24.273438 27.152344 24.015625 27.152344 M 33.992188 33.980469 C 33.730469 33.980469 33.523438 34.183594 33.523438 34.4375 C 33.523438 34.6875 33.730469 34.894531 33.992188 34.894531 C 35.660156 34.894531 37.015625 36.222656 37.015625 37.851562 C 37.015625 37.957031 37.007812 38.058594 36.996094 38.164062 C 35.546875 38.738281 34.519531 40.132812 34.519531 41.753906 C 34.519531 42.003906 34.730469 42.210938 34.988281 42.210938 C 35.246094 42.210938 35.457031 42.003906 35.457031 41.753906 C 35.457031 40.121094 36.8125 38.796875 38.480469 38.796875 C 38.738281 38.796875 38.949219 38.589844 38.949219 38.335938 C 38.949219 38.085938 38.738281 37.878906 38.480469 37.878906 C 38.300781 37.878906 38.121094 37.894531 37.949219 37.917969 C 37.949219 37.894531 37.953125 37.871094 37.953125 37.851562 C 37.953125 35.71875 36.175781 33.980469 33.992188 33.980469 M 28.503906 34.953125 C 26.324219 34.953125 24.542969 36.691406 24.542969 38.828125 C 24.542969 38.847656 24.546875 38.867188 24.546875 38.890625 C 24.371094 38.867188 24.195312 38.855469 24.015625 38.855469 C 23.757812 38.855469 23.546875 39.058594 23.546875 39.3125 C 23.546875 39.566406 23.757812 39.769531 24.015625 39.769531 C 25.683594 39.769531 27.039062 41.097656 27.039062 42.726562 C 27.039062 42.980469 27.25 43.183594 27.507812 43.183594 C 27.765625 43.183594 27.976562 42.980469 27.976562 42.726562 C 27.976562 41.105469 26.949219 39.710938 25.5 39.136719 C 25.488281 39.035156 25.480469 38.929688 25.480469 38.828125 C 25.480469 37.195312 26.835938 35.867188 28.503906 35.867188 C 28.765625 35.867188 28.972656 35.664062 28.972656 35.410156 C 28.972656 35.160156 28.765625 34.953125 28.503906 34.953125 "/>
</g>
</defs>
<path fill-rule="nonzero" fill="rgb(39.607843%, 39.607843%, 39.607843%)" fill-opacity="1" d="M 13 4 L 51 4 C 53.761719 4 56 6.238281 56 9 L 56 55 C 56 57.761719 53.761719 60 51 60 L 13 60 C 10.238281 60 8 57.761719 8 55 L 8 9 C 8 6.238281 10.238281 4 13 4 Z M 13 4 "/>
<g mask="url(#mask-0)">
<use xlink:href="#source-5895"/>
</g>
<g mask="url(#mask-1)">
<use xlink:href="#source-5899"/>
</g>
</svg>

<svg width="64" height="64" version="1.1" viewBox="0 0 64 64" xmlns="http://www.w3.org/2000/svg">
 <defs>
  <linearGradient id="a" x1="49.571" x2="51.714" y1="52.714" y2="54.857" gradientTransform="matrix(2.3333,0,0,2.3333,-68.667,-72.001)" gradientUnits="userSpaceOnUse">
   <stop offset="0"/>
   <stop stop-opacity="0" offset="1"/>
  </linearGradient>
 </defs>
 <g transform="scale(1)">
  <rect x="8" y="4" width="48" height="56" ry="5" fill="#656565" style="paint-order:stroke fill markers"/>
  <path d="m56 46-14 14h9c2.77 0 5-2.23 5-5z" fill="url(#a)" fill-rule="evenodd" opacity=".15" stroke-width="8.8191" style="paint-order:stroke fill markers"/>
 </g>
 <path d="m30.006 18.802c0.84206 0 1.5277 0.67036 1.5277 1.4936v5.9156c-0.41986-0.32577-0.95026-0.52217-1.5277-0.52217-0.25873 0-0.46807 0.20464-0.46807 0.45749s0.20934 0.45749 0.46807 0.45749c0.84206 0 1.5277 0.67036 1.5277 1.4936v10.989c-0.58098-0.73387-1.4007-1.2866-2.3639-1.5406-0.24933-0.06586-0.50688 0.0788-0.57392 0.32342-0.06704 0.24345 0.08115 0.49512 0.33048 0.56098 1.5359 0.40339 2.6073 1.77 2.6073 3.3236 0 1.8993-1.5806 3.4447-3.5223 3.4447-1.3113 0-2.505-0.70799-3.1166-1.8452-0.06115-0.1129-0.16818-0.19523-0.29402-0.22816-1.5348-0.40339-2.605-1.7688-2.605-3.3212 0-0.23169 0.02352-0.46572 0.07056-0.6927 0.04351-0.21052-0.06821-0.42221-0.26814-0.50924-1.0926-0.47513-1.7982-1.5336-1.7982-2.7002 0-0.53041 0.13995-1.0373 0.4081-1.4865 0.69858 0.60215 1.6124 0.96908 2.6144 0.96908 0.25874 0 0.46808-0.20464 0.46808-0.45749 0-0.25286-0.20934-0.45749-0.46808-0.45749-1.6677 0-3.0225-1.3278-3.0225-2.9578 0-0.87735 0.39634-1.7053 1.0867-2.2686 0.15642-0.12702 0.20934-0.33871 0.1329-0.52217-0.14818-0.35517-0.22228-0.72916-0.22228-1.1102 0-1.63 1.3548-2.9555 3.0225-2.9555s3.0248 1.3254 3.0248 2.9555c0 0.25286 0.20934 0.45749 0.46807 0.45749s0.46808-0.20464 0.46808-0.45749c0-2.0511-1.6406-3.7328-3.7058-3.861-0.187-0.30578-0.28461-0.65507-0.28461-1.0161 0-0.81501 0.50571-1.5148 1.2266-1.8182 0.02823-0.0082 0.0541-0.01999 0.07997-0.03411 0.22345-0.0835 0.46455-0.12819 0.7174-0.12819 0.78326 0 1.483 0.42809 1.8253 1.1161 0.1129 0.22698 0.39163 0.32107 0.62332 0.21052 0.23286-0.11055 0.32812-0.38222 0.21522-0.61038-0.39046-0.78679-1.1302-1.3513-1.9817-1.5512 1.1937-0.71152 2.3639-1.1161 3.3071-1.1161m3.9904 0c0.9385 0 2.1134 0.40457 3.3071 1.1161-0.85147 0.19993-1.5912 0.76562-1.9817 1.5512-0.1129 0.22698-0.01646 0.49983 0.21522 0.61038 0.23286 0.11055 0.51277 0.01647 0.62567-0.21052 0.34224-0.68918 1.0408-1.1161 1.8229-1.1161 0.25285 0 0.49512 0.04469 0.7174 0.12819 0.02587 0.01294 0.05528 0.02587 0.08232 0.03411 0.72093 0.30342 1.2266 1.0032 1.2266 1.8182 0 0.36105-0.09997 0.71034-0.28696 1.0161-2.0652 0.12819-3.7034 1.81-3.7034 3.861 0 0.25286 0.20934 0.45749 0.46808 0.45749s0.46807-0.20464 0.46807-0.45749c0-1.63 1.3548-2.9555 3.0225-2.9555s3.0248 1.3254 3.0248 2.9555c0 0.38105-0.07527 0.75386-0.22228 1.1102-0.07644 0.18464-0.02234 0.39516 0.1329 0.52217 0.69035 0.56451 1.0867 1.3913 1.0867 2.2686 0 1.63-1.3572 2.9578-3.0248 2.9578-0.25874 0-0.46808 0.20464-0.46808 0.45749s0.20934 0.45749 0.46808 0.45749c1.002 0 1.9158-0.36693 2.6144-0.96908 0.26814 0.44926 0.41045 0.95614 0.41045 1.4865 0 1.1655-0.70564 2.2251-1.7982 2.7002-0.19993 0.08703-0.31166 0.29872-0.26814 0.50924 0.04704 0.22698 0.07056 0.46102 0.07056 0.6927 0 1.5524-1.0726 2.9166-2.6073 3.3212-0.12584 0.03293-0.23051 0.11643-0.29166 0.22816-0.61156 1.1373-1.8076 1.8452-3.1189 1.8452-1.9429 0-3.5223-1.5454-3.5223-3.4447 0-0.12819-0.0071-0.25756-0.01882-0.3834 0.01176-0.03881 0.01882-0.0788 0.01882-0.12114v-15.102c0-0.82325 0.68565-1.4936 1.5277-1.4936 0.25873 0 0.46807-0.20464 0.46807-0.45749 0-0.25286-0.20934-0.45749-0.46807-0.45749-0.57627 0-1.1067 0.1964-1.5277 0.52217v-3.9669c0-0.82325 0.68565-1.4936 1.5277-1.4936m6.9835 7.8632c-0.25874 0-0.46808 0.20464-0.46808 0.45749 0 1.63-1.3548 2.9555-3.0225 2.9555-0.81972 0-1.5865-0.31283-2.1604-0.88558-0.18111-0.17994-0.47866-0.18347-0.6633-0.0071-0.18464 0.17641-0.18817 0.46572-0.0071 0.64566 0.64801 0.64684 1.4865 1.0432 2.3945 1.1396 0.21522 1.3913 1.4466 2.4615 2.9284 2.4615 0.25873 0 0.46807-0.20464 0.46807-0.45749s-0.20934-0.45749-0.46807-0.45749c-0.96908 0-1.7806-0.66918-1.9793-1.5583 1.9405-0.24815 3.4447-1.8723 3.4447-3.8363 0-0.25286-0.20934-0.45749-0.46807-0.45749m-16.959 0.48924c-0.25874 0-0.46808 0.20228-0.46808 0.45514 0 1.964 1.5042 3.5917 3.4447 3.8387-0.19876 0.88911-1.0102 1.5559-1.9793 1.5559-0.25874 0-0.46808 0.20464-0.46808 0.45749s0.20934 0.45749 0.46808 0.45749c1.4818 0 2.7144-1.0702 2.9284-2.4615 0.90792-0.09644 1.7453-0.48924 2.3945-1.1373 0.18111-0.17994 0.17759-0.4716-0.0071-0.64801-0.18464-0.17641-0.47984-0.17406-0.66095 0.0071-0.57392 0.57274-1.3407 0.88793-2.1604 0.88793-1.6677 0-3.0248-1.3278-3.0248-2.9578 0-0.25285-0.20934-0.45514-0.46807-0.45514m9.9766 6.8259c-0.25873 0-0.46807 0.20464-0.46807 0.45749s0.20934 0.45749 0.46807 0.45749c1.6677 0 3.0248 1.3278 3.0248 2.9578 0 0.10467-0.0071 0.20816-0.01882 0.31166-1.4513 0.5751-2.4768 1.9676-2.4768 3.5894 0 0.25285 0.20934 0.45749 0.46807 0.45749 0.25874 0 0.46808-0.20464 0.46808-0.45749 0-1.63 1.3572-2.9578 3.0248-2.9578 0.25874 0 0.46808-0.20464 0.46808-0.45749s-0.20934-0.45749-0.46808-0.45749c-0.17994 0-0.3587 0.01294-0.53158 0.03646 0-0.02235 0.0024-0.04351 0.0024-0.06468 0-2.1346-1.777-3.8728-3.961-3.8728m-5.4852 0.97496c-2.1828 0-3.961 1.7382-3.961 3.8728 0 0.02234 0.0024 0.04234 0.0024 0.06468-0.17406-0.02234-0.35164-0.03646-0.53158-0.03646-0.25874 0-0.46808 0.20464-0.46808 0.45749s0.20934 0.45749 0.46808 0.45749c1.6677 0 3.0248 1.3278 3.0248 2.9578 0 0.25286 0.20934 0.45749 0.46808 0.45749s0.46808-0.20464 0.46808-0.45749c0-1.6218-1.0255-3.0154-2.4768-3.5894-0.01058-0.10349-0.01882-0.20699-0.01882-0.31166 0-1.63 1.3572-2.9578 3.0248-2.9578 0.25874 0 0.46807-0.20464 0.46807-0.45749s-0.20934-0.45749-0.46807-0.45749" color="#000000" color-rendering="auto" fill="#e0e0e0" image-rendering="auto" opacity=".75" shape-rendering="auto" solid-color="#000000" stroke-width="1.1761" style="isolation:auto;mix-blend-mode:normal"/>
</svg>
